X:1
T:Basilicata, 77.77.77.77.77
T:Basilicata, 77.77.77.77.77
T:Adam Geibel, 1901
T:Public Domain Courtesy of the Cyber Hymnal™
C:Adam Geibel, 1901
Z:Public Domain
Z:Courtesy of the Cyber Hymnal™
%%score ( 1 2 ) ( 3 4 )
L:1/8
Q:1/4=105
M:4/4
K:Bb
V:1 treble 
V:2 treble 
V:3 bass 
V:4 bass 
V:1
 [DB]2 F2 (DB,) (DF) | B2 ([Fd][Ec]) [DB]4 | [Ec]2 G2 (EC) (EG) | c2 ([Ge][Fd]) [Ec]4 | %4
 [Fc]2 [=Ec]2 [Fc]2 (AB) | [Fc]2 [Fd]2 [Fc]4 | (AB) (cd) (cBA)[GB] | [FA]2 [=EG]2 !fermata!F2 F>F | %8
[M:6/8] e2 e e2 e | [EGe]3 F2 F | d2 d d2 d | [DFd]3 D2 D | c2 c c2 c | [DAc]3 D2 D | B2 B B2 B | %15
 [B,DB]3 [DB]2 [DB] | [Gc]3 [Gc]3 | [G^c]3 [Gc]3 | [^Fd]3 DFA | z3 [Gd]2 [Gd] | %20
 [Ge]2 [Ge] [Gd]2 [Gc] | [Bf]3 [FA]3 | [FB]6- | [FB]3 z3 |] %24
V:2
 x2 F2 DB,DF | B2 x6 | x2 G2 ECEG | c2 x6 | x6 F2 | x8 | F2 F2 F3 x | x4 F2 x2 | %8
[M:6/8] [EA]3 [E_A]3 | x3 [CE]3 | [DF]3 [DF]3 | x6 | [D^F]3 [DF]3 | x6 | [B,D]3 [B,D]3 | x6 | x6 | %17
 x6 | x6 | x6 | x6 | x6 | x6 | x6 |] %24
V:3
 [B,,F,]2 F,2 D,B,,D,F, | B,2 [F,A,]2 [B,,B,]4 | [C,G,]2 G,2 E,C,E,G, | C2 [G,=B,]2 [C,C]4 | %4
 [F,A,]2 [G,B,]2 [A,C]2 (F,G,) | [F,A,]2 B,2 [F,A,]4 | C2 ([A,C] B,) C3 [B,,D] | %7
 [C,C]2 [C,B,]2 !fermata![F,A,]2 z2 |[M:6/8] [F,,F,]3 [^F,,^F,]3 | [G,,G,]3 [A,,A,]3 | %10
 [B,,B,]3 [F,,F,]3 | [D,,D,]3 [B,,,B,,]3 | [D,,D,]3 [A,,A,]3 | [^F,,^F,]3 [D,,D,]3 | %14
 [G,,G,]3 D,2 B,, | G,,3 [G,B,]2 [G,B,] | [E,G,]3 [E,G,]3 | [E,A,]3 [E,A,]3 | [D,A,]3 D,^F,A, | %19
 z3 [G,=B,]2 [G,B,] | [C,C]2 [C,C] [D,=B,]2 [E,C] | [F,D]3 [F,E]3 | [B,,D]6- | [B,,D]3 z3 |] %24
V:4
 x2 F,2 (D,B,,) (D,F,) | B,2 x6 | x2 G,2 (E,C,) (E,G,) | C2 x6 | x6 F,2 | x2 (B,,D,) x4 | %6
 (F,G,)B, (A,G,F,) x2 | x8 |[M:6/8] x6 | x6 | x6 | x6 | x6 | x6 | x6 | x6 | x6 | x6 | x6 | x6 | %20
 x6 | x6 | x6 | x6 |] %24

